!!!OTL: 526. Sonntags am Rhein.
!!!COM: Volksweise
!!!ODT: 1860
!!!ARE: Europa, Mitteleuropa, Deutschland
!!!SCT: B0526
!!!TXL: @@DE
!!!YEM: Copyright 1995, estate of Helmut Schaffrath.
**kern	**text
*ICvox	*
*Ivox	*
*clefG2	*
*M4/4	*
*met(c)	*
*k[f#]	*
*G:	*
!LO:TX:a:t=Heiter.	!
{4dd	Des
=1	=1
4dd	Sonntags
4b	.
4.cc	in
8b	der
=2	=2
4.b	Mor-
8a	-gen-
4g}	-ſtund'
{4g	da
=3	=3
4a	wan-
4b	-dert
4cc	ſich
4b	ſo
=4	=4
2a	ſchön
4r}	.
{4dd	am
=5	=5
4dd	Rhein,
4b	wenn
4.cc	rings
8b	im
=6	=6
4.b	wei-
8a	-ten
4g}	Rund
{4g	die
=7	=7
4a	Morgen-
4b	.
4cc	-glo-
4b	-cken
=8	=8
2a	gehn.
4r}	.
{4a	Ein
=9	=9
4.a	Schifflein
8a	.
4b	ʒieht
4cc#	auf
=10	=10
4.dd	blau-
8ee	-er
4ff#}	Fluth,
{4ff#	da
=11	=11
4.ee	ſingt's
8ff#	und
4gg	ju-
4ee	-belt's
=12	=12
2.ff#}	drein:
{4dd	Du
=13	=13
4gg	Schifflein,
4ff#	.
4ee	gelt',
4dd	das
=14	=14
4.dd	fährt
8cc	ſich
4b}	gut
{4ee	in
=15	=15
4dd	all'
4b	die
4cc	Luſt
4a	hin-
=16	=16
2.dd}	-ein?
{4dd	Du
=17	=17
4gg	Schifflein,
4ff#	.
4ee	gelt',
4dd	das
=18	=18
4.dd	fährt
8cc	ſich
4b}	gut
{4ee	in
=19	=19
4dd	all'
4gg	die
4gg	Luſt
4ff#	hin-
=20	=20
2gg	-ein?
4r}	.
==	==
!!!AGN: Wander - Lied
!!!GTL: Wanderlieder
!!!ONB: ESAC (Essen Associative Code) Database: BOEHME
!!!AMT: simple quadruple
!!!AIN: vox
!!!EED: Helmut Schaffrath
!!!EEV: 1.0
!!Neuere Volksweiſe nach 1860.
!!@@COMMENT:"Gedicht vom Maler Rob. Reinick, während ſeines Aufenthalts in Düſſeldorf 1833-38
!!entſtanden und gedruckt in deſſen Geſammelten Gedichten" 1852."
!!@@END:
!!!Text: R. Reinick
!!!URL-scan: https://archive.org/details/BoehmeVtLieder1895/page/n417/mode/2up
!!!ENC: Anna Maria Matuszewska
!!!EEV: 2024/11/07
*-	*-
